storage/app/icons/tabler/filled/square-rounded-letter-t.svg

<!--
unicode: "fdda"
version: "3.0"
-->
<svg
  xmlns="http://www.w3.org/2000/svg"
  width="24"
  height="24"
  viewBox="0 0 24 24"
  fill="currentColor"
>
  <path d="M11.676 2.001l.324 -.001c7.752 0 10 2.248 10 10l-.005 .642c-.126 7.235 -2.461 9.358 -9.995 9.358l-.642 -.005c-7.13 -.125 -9.295 -2.395 -9.358 -9.67v-.325c0 -7.643 2.185 -9.936 9.676 -9.999m2.324 4.999h-4a1 1 0 1 0 0 2h1v7a1 1 0 0 0 .883 .993l.117 .007a1 1 0 0 0 1 -1v-7h1a1 1 0 0 0 .993 -.883l.007 -.117a1 1 0 0 0 -1 -1" />
</svg>

<svg xmlns="http://www.w3.org/2000/svg" width="24" height="24" fill="currentColor" viewBox="0 0 24 24"><path d="M11.676 2.001 12 2c7.752 0 10 2.248 10 10l-.005.642C21.869 19.877 19.534 22 12 22l-.642-.005C4.228 21.87 2.063 19.6 2 12.325V12c0-7.643 2.185-9.936 9.676-9.999M14 7h-4a1 1 0 1 0 0 2h1v7a1 1 0 0 0 .883.993L12 17a1 1 0 0 0 1-1V9h1a1 1 0 0 0 .993-.883L15 8a1 1 0 0 0-1-1"/></svg>
